packages/icons/src/gcp-engine.svg

<svg width="24" height="24" viewBox="0 0 24 24" fill="none" xmlns="http://www.w3.org/2000/svg">
<path d="M14.0347 8.41705V8.91619H14.5052C15.1379 8.91619 15.1157 8.89393 15.1157 9.52977V9.99711H15.6211C16.2411 9.99711 16.2284 9.99075 16.2284 10.3468C16.2284 10.6934 16.2252 10.6965 15.6021 10.6965H15.1157V11.1734V11.6503H15.6021C16.2252 11.6503 16.2284 11.6535 16.2284 12C16.2284 12.3465 16.2252 12.3497 15.6021 12.3497H15.1157V12.8266V13.3035H15.6084C16.2188 13.3035 16.2284 13.3098 16.2284 13.6627C16.2284 14.0029 16.2284 14.0029 15.6148 14.0029H15.1157V14.4798C15.1157 15.1156 15.1474 15.0838 14.5116 15.0838H14.0347V15.5766C14.0347 16.0598 14.0315 16.0725 13.9552 16.1488C13.8917 16.2156 13.8472 16.2283 13.7009 16.2283C13.5261 16.2283 13.4052 16.1902 13.3607 16.1202C13.348 16.1012 13.3353 15.8595 13.3353 15.583V15.0838H12.8584H12.3815V15.5766C12.3815 16.0598 12.3784 16.0725 12.3021 16.1488C12.2385 16.2156 12.194 16.2283 12.0255 16.2283C11.6853 16.2283 11.6821 16.2251 11.6821 15.6052V15.0838H11.2084H10.7315L10.722 15.5957C10.7125 16.0948 10.7093 16.1075 10.633 16.1711C10.5662 16.2251 10.5185 16.2315 10.3405 16.222C10.0162 16.2029 10.0162 16.2029 10.0035 15.5925L9.99398 15.0838H9.52028H9.04658L8.98299 15.0012C8.92259 14.9249 8.91623 14.874 8.91623 14.4607V14.0029H8.41392C7.80033 14.0029 7.80351 14.0029 7.80351 13.6595C7.80351 13.3098 7.81305 13.3035 8.42346 13.3035H8.91623V12.8266V12.3497H8.42981C7.80669 12.3497 7.80351 12.3465 7.80351 12C7.80351 11.6535 7.80669 11.6503 8.42981 11.6503H8.91623V11.1734V10.6965H8.41074C7.80351 10.6965 7.80351 10.6965 7.80351 10.3277C7.80351 9.99711 7.80669 9.99711 8.4171 9.99711H8.91623V9.79046V9.58382H5.61305H2.30987L2.20496 9.76503C2.14773 9.86676 2.07779 9.98757 2.04918 10.0384C2.02374 10.0861 1.86796 10.3564 1.70583 10.6425C1.54051 10.9254 1.38791 11.1957 1.36247 11.2402C1.23531 11.4786 1.18444 12.0668 1.25756 12.4197C1.29253 12.5913 1.43877 12.9188 1.59137 13.1763C1.75669 13.4529 2.02057 13.9171 2.32577 14.448C2.43068 14.6324 2.59918 14.9249 2.70091 15.0997C2.80265 15.2746 2.9934 15.602 3.12374 15.8309C3.25409 16.0566 3.39715 16.2983 3.43848 16.3619C3.47663 16.4286 3.51161 16.489 3.51161 16.4954C3.51161 16.5049 3.55294 16.5812 3.6038 16.6671C3.65149 16.7497 3.73097 16.8832 3.7723 16.9627C3.81681 17.039 3.92808 17.2298 4.02028 17.3887C4.1538 17.6145 4.68155 18.5301 5.06941 19.2009C5.09802 19.2517 5.25698 19.5251 5.41594 19.8049C5.57808 20.0847 5.77837 20.428 5.85785 20.5679C6.06132 20.9208 6.38877 21.2419 6.69398 21.3882C7.1645 21.6171 6.79889 21.6012 11.9905 21.6012C15.2428 21.6012 16.7211 21.5916 16.8388 21.5662C17.1122 21.509 17.5064 21.3023 17.7226 21.102C17.9578 20.8858 18.0119 20.8095 18.3966 20.1387C18.5651 19.8494 18.918 19.2358 19.185 18.7717C19.4552 18.3075 19.7763 17.7512 19.9003 17.5318C20.0275 17.3124 20.3136 16.8197 20.5362 16.435C20.7587 16.0503 21.0417 15.5575 21.1657 15.3382C21.2865 15.1188 21.4136 14.8962 21.4422 14.8454C21.474 14.7913 21.6107 14.5561 21.7443 14.3208C22.0463 13.7962 22.0558 13.7772 22.2847 13.383C22.6789 12.7121 22.7775 12.4356 22.7775 12C22.7775 11.5199 22.7044 11.3387 22.0781 10.2578L21.687 9.58382H18.6954H15.7038L14.8709 8.75087L14.0347 7.91474V8.41705Z" fill="#0278D5"/>
<path d="M14.0347 15.5832V15.0841H14.5052C15.1379 15.0841 15.1157 15.1063 15.1157 14.4705V14.0031H15.6211C16.2411 14.0031 16.2284 14.0095 16.2284 13.6534C16.2284 13.3069 16.2252 13.3037 15.6021 13.3037H15.1157V12.8268V12.35H15.6021C16.2252 12.35 16.2284 12.3468 16.2284 12.0002C16.2284 11.6537 16.2252 11.6505 15.6021 11.6505H15.1157V11.1737V10.6968H15.6084C16.2188 10.6968 16.2284 10.6904 16.2284 10.3375C16.2284 9.99735 16.2284 9.99735 15.6148 9.99735H15.1157V9.52047C15.1157 8.88464 15.1474 8.91643 14.5116 8.91643H14.0347V8.42365C14.0347 7.94042 14.0315 7.9277 13.9552 7.8514C13.8917 7.78463 13.8472 7.77192 13.7009 7.77192C13.5261 7.77192 13.4052 7.81007 13.3607 7.88001C13.348 7.89909 13.3353 8.1407 13.3353 8.41729V8.91643H12.8584H12.3815V8.42365C12.3815 7.94042 12.3784 7.9277 12.3021 7.8514C12.2385 7.78463 12.194 7.77192 12.0255 7.77192C11.6853 7.77192 11.6821 7.7751 11.6821 8.39504V8.91643H11.2084H10.7315L10.722 8.40458C10.7125 7.90544 10.7093 7.89273 10.633 7.82914C10.5662 7.7751 10.5185 7.76874 10.3405 7.77828C10.0162 7.79735 10.0162 7.79735 10.0035 8.40776L9.99398 8.91643H9.52028H9.04658L8.98299 8.99909C8.92259 9.07539 8.91623 9.12625 8.91623 9.53955V9.99735H8.41392C7.80033 9.99735 7.80351 9.99735 7.80351 10.3407C7.80351 10.6904 7.81305 10.6968 8.42346 10.6968H8.91623V11.1737V11.6505H8.42981C7.80669 11.6505 7.80351 11.6537 7.80351 12.0002C7.80351 12.3468 7.80669 12.35 8.42981 12.35H8.91623V12.8268V13.3037H8.41074C7.80351 13.3037 7.80351 13.3037 7.80351 13.6725C7.80351 14.0031 7.80669 14.0031 8.4171 14.0031H8.91623V14.2098V14.4164H5.61305H2.30987L2.20496 14.2352C2.14773 14.1335 2.07779 14.0127 2.04918 13.9618C2.02374 13.9141 1.86796 13.6439 1.70583 13.3578C1.54051 13.0748 1.38791 12.8046 1.36247 12.7601C1.23531 12.5216 1.18444 11.9335 1.25756 11.5806C1.29253 11.4089 1.43877 11.0815 1.59137 10.8239C1.75669 10.5474 2.02057 10.0832 2.32577 9.55227C2.43068 9.36787 2.59918 9.07539 2.70091 8.90053C2.80265 8.72568 2.9934 8.39822 3.12374 8.16932C3.25409 7.94359 3.39715 7.70198 3.43848 7.63839C3.47663 7.57163 3.51161 7.51122 3.51161 7.50487C3.51161 7.49533 3.55294 7.41903 3.6038 7.33319C3.65149 7.25053 3.73097 7.117 3.7723 7.03753C3.81681 6.96122 3.92808 6.77047 4.02028 6.61151C4.1538 6.38579 4.68155 5.47018 5.06941 4.79937C5.09802 4.74851 5.25698 4.4751 5.41594 4.19533C5.57808 3.91556 5.77837 3.57221 5.85785 3.43232C6.06132 3.07943 6.38877 2.75833 6.69398 2.61209C7.1645 2.38319 6.79889 2.39909 11.9905 2.39909C15.2428 2.39909 16.7211 2.40862 16.8388 2.43406C17.1122 2.49128 17.5064 2.69793 17.7226 2.89822C17.9578 3.1144 18.0119 3.1907 18.3966 3.86151C18.5651 4.15082 18.918 4.7644 19.185 5.22857C19.4552 5.69273 19.7763 6.24909 19.9003 6.46845C20.0275 6.68781 20.3136 7.18059 20.5362 7.56527C20.7587 7.94995 21.0417 8.44273 21.1657 8.66209C21.2865 8.88146 21.4136 9.104 21.4422 9.15487C21.474 9.20891 21.6107 9.44417 21.7443 9.67943C22.0463 10.204 22.0558 10.2231 22.2847 10.6173C22.6789 11.2881 22.7775 11.5647 22.7775 12.0002C22.7775 12.4803 22.7044 12.6615 22.0781 13.7424L21.687 14.4164H18.6954H15.7038L14.8709 15.2494L14.0347 16.0855V15.5832Z" fill="#0278D5"/>
<path d="M9.64746 12V14.3526H12.016H14.3845V12V9.6474H12.016H9.64746V12ZM13.135 10.8936L13.2082 10.9604V12.0064C13.2082 13.0078 13.205 13.0523 13.1446 13.1127C13.0842 13.1731 13.0397 13.1763 12.0191 13.1763H10.9541L10.8905 13.0936C10.8269 13.011 10.8238 12.9728 10.8238 12C10.8238 11.0272 10.8269 10.989 10.8905 10.9064L10.9541 10.8237H12.0096C13.046 10.8237 13.0619 10.8237 13.135 10.8936Z" fill="#0278D5"/>
</svg>

<svg width="24" height="24" fill="none" xmlns="http://www.w3.org/2000/svg"><path d="M14.035 8.417v.5h.47c.633 0 .61-.023.61.613v.467h.506c.62 0 .607-.006.607.35 0 .346-.003.35-.626.35h-.486v.953h.486c.623 0 .626.003.626.35s-.003.35-.626.35h-.486v.953h.492c.61 0 .62.007.62.36 0 .34 0 .34-.613.34h-.5v.477c0 .636.032.604-.603.604h-.477v.493c0 .483-.004.496-.08.572-.063.067-.108.08-.254.08-.175 0-.296-.039-.34-.109-.013-.019-.026-.26-.026-.537v-.5h-.953v.494c0 .483-.004.496-.08.572-.063.067-.108.08-.277.08-.34 0-.343-.004-.343-.624v-.521h-.95l-.01.512c-.01.499-.013.512-.089.575-.067.054-.114.06-.292.051-.325-.02-.325-.02-.337-.63l-.01-.508h-.947L8.983 15c-.06-.076-.067-.127-.067-.54v-.458h-.502c-.614 0-.61 0-.61-.344 0-.35.009-.356.62-.356h.492v-.953H8.43c-.623 0-.626-.003-.626-.35s.003-.35.626-.35h.486v-.953h-.505c-.607 0-.607 0-.607-.37 0-.33.003-.33.613-.33h.5v-.413H2.31l-.105.181c-.057.102-.127.223-.156.273-.025.048-.181.318-.343.604-.165.283-.318.554-.344.598-.127.239-.178.827-.104 1.18.035.171.18.499.333.756.166.277.43.741.735 1.272.105.184.273.477.375.652l.423.73c.13.227.273.468.314.532.039.067.074.127.074.133 0 .01.04.086.092.172.047.083.127.216.168.296l.248.426c.134.226.662 1.141 1.05 1.812.028.05.187.324.346.604l.442.763c.203.353.53.674.836.82.47.23.105.213 5.297.213 3.252 0 4.73-.01 4.848-.035.273-.057.667-.264.884-.464.235-.216.289-.293.674-.963l.788-1.367c.27-.464.591-1.02.715-1.24.128-.22.414-.712.636-1.097.223-.385.506-.877.63-1.097.12-.22.248-.442.276-.493.032-.054.169-.289.302-.524.302-.525.312-.544.54-.938.395-.67.494-.947.494-1.383 0-.48-.074-.661-.7-1.742l-.391-.674H15.704l-.833-.833-.836-.836v.502Z" fill="#0278D5"/><path d="M14.035 15.583v-.499h.47c.633 0 .61.022.61-.614v-.467h.506c.62 0 .607.006.607-.35 0-.346-.003-.35-.626-.35h-.486v-.953h.486c.623 0 .626-.003.626-.35 0-.346-.003-.35-.626-.35h-.486v-.953h.492c.61 0 .62-.007.62-.36 0-.34 0-.34-.613-.34h-.5V9.52c0-.635.032-.604-.603-.604h-.477v-.492c0-.484-.004-.496-.08-.573-.063-.066-.108-.08-.254-.08-.175 0-.296.04-.34.109-.013.02-.026.26-.026.537v.5h-.953v-.493c0-.484-.004-.496-.08-.573-.063-.066-.108-.08-.277-.08-.34 0-.343.004-.343.624v.521h-.95l-.01-.511c-.01-.5-.013-.512-.089-.576-.067-.054-.114-.06-.292-.05-.325.018-.325.018-.337.629l-.01.508h-.947L8.983 9c-.06.076-.067.127-.067.54v.458h-.502c-.614 0-.61 0-.61.344 0 .35.009.356.62.356h.492v.953H8.43c-.623 0-.626.004-.626.35 0 .347.003.35.626.35h.486v.954h-.505c-.607 0-.607 0-.607.368 0 .331.003.331.613.331h.5v.413H2.31l-.105-.18c-.057-.103-.127-.223-.156-.274-.025-.048-.181-.318-.343-.604-.165-.283-.318-.553-.344-.598-.127-.238-.178-.826-.104-1.18.035-.171.18-.498.333-.756.166-.277.43-.74.735-1.272.105-.184.273-.477.375-.651.102-.175.292-.503.423-.732.13-.225.273-.467.314-.53.039-.067.074-.128.074-.134 0-.01.04-.086.092-.172.047-.082.127-.216.168-.295l.248-.426c.134-.226.662-1.142 1.05-1.813.028-.05.187-.324.346-.604l.442-.763c.203-.353.53-.674.836-.82.47-.229.105-.213 5.297-.213 3.252 0 4.73.01 4.848.035.273.057.667.264.884.464.235.216.289.293.674.964.168.289.521.902.788 1.367.27.464.591 1.02.715 1.24l.636 1.096c.223.385.506.878.63 1.097.12.22.248.442.276.493.032.054.169.29.302.524.302.525.312.544.54.938.395.671.494.948.494 1.383 0 .48-.074.662-.7 1.742l-.391.674H15.704l-.833.833-.836.836v-.502Z" fill="#0278D5"/><path d="M9.647 12v2.353h4.737V9.647H9.647V12Zm3.488-1.106.073.066v1.046c0 1.002-.003 1.046-.063 1.107-.06.06-.105.063-1.126.063h-1.065l-.064-.082c-.063-.083-.066-.121-.066-1.094 0-.973.003-1.011.066-1.094l.064-.082h1.056c1.036 0 1.052 0 1.125.07Z" fill="#0278D5"/></svg>
